src/assets/img/iconlupa.svg

<?xml version="1.0" standalone="no"?>
<!DOCTYPE svg PUBLIC "-//W3C//DTD SVG 1.0//EN" "http://www.w3.org/TR/2001/REC-SVG-20010904/DTD/svg10.dtd">
<svg xmlns="http://www.w3.org/2000/svg" xmlns:xlink="http://www.w3.org/1999/xlink" id="body_1" width="50" height="38">

<g transform="matrix(0.7916667 0 0 0.7916667 6 -0)">
    <path d="M39.8 42L26.6 28.8C 25.6 29.699999 24.4 30.3 23.1 30.8C 21.800001 31.3 20.4 31.5 18.8 31.5C 15.199999 31.5 12.099999 30.3 9.599999 27.7C 7.0999994 25.100002 6 22.3 6 18.8C 6 15.299999 7.2 12.199999 9.8 9.699999C 12.400001 7.199999 15.3 5.8999987 18.900002 5.8999987C 22.500004 5.8999987 25.500002 7.0999985 27.900002 9.699999C 30.400002 12.199999 31.600002 15.199999 31.600002 18.8C 31.600002 20.199999 31.400002 21.599998 30.900002 22.9C 30.400002 24.199999 29.7 25.5 28.800001 26.699999L28.800001 26.699999L42 39.8L39.8 42zM18.9 28.6C 21.6 28.6 23.9 27.6 25.8 25.7C 27.699999 23.800001 28.599998 21.5 28.599998 18.800001C 28.599998 16.100002 27.699999 13.800001 25.8 11.900002C 23.9 10.000002 21.599998 9.000002 18.9 9.000002C 16.199999 9.000002 13.799999 10.000002 11.9 11.900002C 10 13.7 9 16 9 18.8C 9 21.599998 10 23.8 11.9 25.699999C 13.8 27.6 16.1 28.6 18.9 28.6z" stroke="none" fill="#FFFFFF" fill-rule="nonzero" />
</g>
</svg>

<?xml version="1.0" encoding="utf-8"?>
<!-- Generator: Adobe Illustrator 25.4.1, SVG Export Plug-In . SVG Version: 6.00 Build 0)  -->
<svg version="1.1" id="Layer_1" xmlns="http://www.w3.org/2000/svg" xmlns:xlink="http://www.w3.org/1999/xlink" x="0px" y="0px"
	 viewBox="0 0 48 48" style="enable-background:new 0 0 48 48;" xml:space="preserve">
<style type="text/css">
	.st0{fill:#FFFFFF;}
</style>
<path class="st0" d="M39.8,42L26.6,28.8c-1,0.9-2.2,1.5-3.5,2c-1.3,0.5-2.7,0.7-4.3,0.7c-3.6,0-6.7-1.2-9.2-3.8S6,22.3,6,18.8
	s1.2-6.6,3.8-9.1s5.5-3.8,9.1-3.8s6.6,1.2,9,3.8c2.5,2.5,3.7,5.5,3.7,9.1c0,1.4-0.2,2.8-0.7,4.1c-0.5,1.3-1.2,2.6-2.1,3.8L42,39.8
	L39.8,42z M18.9,28.6c2.7,0,5-1,6.9-2.9c1.9-1.9,2.8-4.2,2.8-6.9s-0.9-5-2.8-6.9c-1.9-1.9-4.2-2.9-6.9-2.9c-2.7,0-5.1,1-7,2.9
	C10,13.7,9,16,9,18.8s1,5,2.9,6.9C13.8,27.6,16.1,28.6,18.9,28.6z"/>
</svg>
